packages/core/assets/Icons/question_mark.svg

<svg viewBox="0 0 20 20" fill="none" xmlns="http://www.w3.org/2000/svg">
<path d="M12.1667 6.72917C12.1667 6.13194 11.9688 5.65278 11.5729 5.29167C11.1771 4.93056 10.6528 4.75 10 4.75C9.59725 4.75 9.23267 4.83681 8.90628 5.01042C8.57989 5.18403 8.29864 5.4375 8.06253 5.77083C7.8403 6.09028 7.53822 6.27431 7.15628 6.32292C6.77433 6.37153 6.44447 6.27083 6.16669 6.02083C5.97225 5.84028 5.86461 5.61806 5.84378 5.35417C5.82294 5.09028 5.88892 4.84028 6.04169 4.60417C6.48614 3.9375 7.05211 3.42014 7.73961 3.05208C8.42711 2.68403 9.18058 2.5 10 2.5C11.3472 2.5 12.441 2.88194 13.2813 3.64583C14.1216 4.40972 14.5417 5.40972 14.5417 6.64583C14.5417 7.27083 14.4097 7.83333 14.1459 8.33333C13.882 8.83333 13.3959 9.42361 12.6875 10.1042C12.1736 10.5903 11.8264 10.9687 11.6459 11.2396C11.4653 11.5104 11.3472 11.8194 11.2917 12.1667C11.2361 12.5 11.0938 12.7778 10.8646 13C10.6354 13.2222 10.3611 13.3333 10.0417 13.3333C9.72225 13.3333 9.44794 13.2257 9.21878 13.0104C8.98961 12.7951 8.87503 12.5278 8.87503 12.2083C8.87503 11.6667 8.99308 11.1701 9.22919 10.7187C9.4653 10.2674 9.86114 9.79167 10.4167 9.29167C11.125 8.66667 11.5938 8.18403 11.8229 7.84375C12.0521 7.50347 12.1667 7.13194 12.1667 6.72917ZM10 18.3333C9.54169 18.3333 9.14933 18.1701 8.82294 17.8437C8.49655 17.5174 8.33336 17.125 8.33336 16.6667C8.33336 16.2083 8.49655 15.816 8.82294 15.4896C9.14933 15.1632 9.54169 15 10 15C10.4584 15 10.8507 15.1632 11.1771 15.4896C11.5035 15.816 11.6667 16.2083 11.6667 16.6667C11.6667 17.125 11.5035 17.5174 11.1771 17.8437C10.8507 18.1701 10.4584 18.3333 10 18.3333Z" fill="currentColor"/>
</svg>

<svg xmlns="http://www.w3.org/2000/svg" width="20" height="20" fill="none" viewBox="0 0 20 20">
  <path fill="#201F1F" d="M12.167 6.73c0-.598-.198-1.077-.594-1.438-.396-.361-.92-.542-1.573-.542-.403 0-.767.087-1.094.26a2.433 2.433 0 0 0-.843.76c-.223.32-.525.504-.907.553a1.188 1.188 0 0 1-.99-.302.986.986 0 0 1-.322-.667 1.176 1.176 0 0 1 .198-.75A4.66 4.66 0 0 1 10 2.5c1.347 0 2.441.382 3.281 1.146.84.764 1.26 1.764 1.26 3a3.56 3.56 0 0 1-.395 1.687c-.264.5-.75 1.09-1.459 1.771-.513.486-.86.865-1.041 1.136-.18.27-.299.58-.354.927a1.463 1.463 0 0 1-.427.833 1.14 1.14 0 0 1-.823.333 1.16 1.16 0 0 1-.823-.323 1.056 1.056 0 0 1-.344-.802c0-.541.118-1.038.354-1.49.236-.45.632-.926 1.188-1.426.708-.625 1.177-1.108 1.406-1.448.23-.34.344-.712.344-1.115ZM10 18.332c-.458 0-.85-.163-1.177-.49a1.605 1.605 0 0 1-.49-1.176c0-.459.164-.851.49-1.177.326-.327.719-.49 1.177-.49.458 0 .85.163 1.177.49.327.326.49.718.49 1.177 0 .458-.163.85-.49 1.177-.326.326-.719.49-1.177.49Z"/>
</svg>
